X: 0582
T: MISS BAKER'S HORNPIPE
B: Oliver Ditson "The Boston Collection of Instrumental Music" 1910 p.58 #2
F: http://conquest.imslp.info/files/imglnks/usimg/8/8f/IMSLP175643-PMLP309456-bostoncollection00bost_bw.pdf
M: 2/4
L: 1/16
K: C
ed |\
c2GF ECEG | AFAc BGBd | ecfd gedc | Bcde dfed |\
c2GF ECEG | AFAc BGBd | ecfd ecdB | c2c2c2 H:|
|: (3gab |\
c'2g2 eceg | f2dc BGBd | ecfd gedc | B2G2G2 cB |\
AFAc BGBd | cBce dcde | fedc edcB | A2A2 Afed "^D.C."|]

%%sep 1 1 500
%%sep 1 1 500
